public/hero.svg

<svg width="900" height="300" xmlns="http://www.w3.org/2000/svg" version="1.1">

 <g>
  <title>Layer 1</title>
  <path stroke="null" id="svg_1" fill="#b90af5" d="m0,169l129,-1l128,-12l129,38l128,-58l129,77l128,-18l129,-9l0,-186l-129,0l-128,0l-129,0l-128,0l-129,0l-128,0l-129,0l0,169z"/>
  <path stroke="null" id="svg_2" fill="#8633c7" d="m0,136l129,26l128,-29l129,10l128,-31l129,10l128,34l129,-1l0,-155l-129,0l-128,0l-129,0l-128,0l-129,0l-128,0l-129,0l0,136z"/>
  <path stroke="null" id="svg_3" fill="#5e3895" d="m0,108l129,-7l128,13l129,-33l128,47l129,11l128,-48l129,54l0,-145l-129,0l-128,0l-129,0l-128,0l-129,0l-128,0l-129,0l0,108z"/>
  <path stroke="null" id="svg_4" fill="#413361" d="m0,102l129,-52l128,42l129,-4l128,17l129,-48l128,-6l129,0l0,-51l-129,0l-128,0l-129,0l-128,0l-129,0l-128,0l-129,0l0,102z"/>
 </g>
</svg>

<svg id="visual" viewBox="0 0 900 300" width="900" height="300" xmlns="http://www.w3.org/2000/svg" xmlns:xlink="http://www.w3.org/1999/xlink" version="1.1"><path d="M0 169L129 168L257 156L386 194L514 136L643 213L771 195L900 186L900 0L771 0L643 0L514 0L386 0L257 0L129 0L0 0Z" fill="#b90af5"></path><path d="M0 136L129 162L257 133L386 143L514 112L643 122L771 156L900 155L900 0L771 0L643 0L514 0L386 0L257 0L129 0L0 0Z" fill="#8633c7"></path><path d="M0 108L129 101L257 114L386 81L514 128L643 139L771 91L900 145L900 0L771 0L643 0L514 0L386 0L257 0L129 0L0 0Z" fill="#5e3895"></path><path d="M0 102L129 50L257 92L386 88L514 105L643 57L771 51L900 51L900 0L771 0L643 0L514 0L386 0L257 0L129 0L0 0Z" fill="#413361"></path><path d="M0 60L129 31L257 64L386 59L514 42L643 23L771 37L900 22L900 0L771 0L643 0L514 0L386 0L257 0L129 0L0 0Z" fill="#2a292d"></path></svg>
